build/Karasa-Jaga/scalable/actions/go-top-symbolic.svg

<svg height="16" width="16" xmlns="http://www.w3.org/2000/svg"><g fill="#bebebe" transform="matrix(0 -1 1 0 0 16.21875)"><path d="m5.427734 2.1894531 7.859375 5.7324219c.0012.00522.0025.010425.0039.015625l-7.874993 5.748047-1.029297-1.054688 2.349609-2.349609c.5916122-.591707 2.1726705-1.603328 1.3359376-1.6035156h-6.9160156v-1.4902344h6.8886719c.8367306-.0001911-.744327-1.0118102-1.3359379-1.6035156l-2.33789-2.3378906z"/><path d="m-15.28125 2.1875h1.3125v11.625h-1.3125z" stroke-width="1.145644" transform="scale(-1 1)"/></g></svg>

<?xml version="1.0" encoding="UTF-8" standalone="no"?>
<!-- Created with Inkscape (http://www.inkscape.org/) -->

<svg
   xmlns:dc="http://purl.org/dc/elements/1.1/"
   xmlns:cc="http://creativecommons.org/ns#"
   xmlns:rdf="http://www.w3.org/1999/02/22-rdf-syntax-ns#"
   xmlns:svg="http://www.w3.org/2000/svg"
   xmlns="http://www.w3.org/2000/svg"
   xmlns:sodipodi="http://sodipodi.sourceforge.net/DTD/sodipodi-0.dtd"
   xmlns:inkscape="http://www.inkscape.org/namespaces/inkscape"
   width="16px"
   height="16px"
   id="svg13294"
   version="1.1"
   inkscape:version="0.92.2 (unknown)"
   sodipodi:docname="go-top-symbolic.svg">
  <defs
     id="defs13296" />
  <sodipodi:namedview
     id="base"
     pagecolor="#ffffff"
     bordercolor="#666666"
     borderopacity="1.0"
     inkscape:pageopacity="0.0"
     inkscape:pageshadow="2"
     inkscape:zoom="16"
     inkscape:cx="0.51522221"
     inkscape:cy="5.5094019"
     inkscape:current-layer="layer1"
     showgrid="true"
     inkscape:grid-bbox="true"
     inkscape:document-units="px"
     inkscape:window-width="1366"
     inkscape:window-height="697"
     inkscape:window-x="0"
     inkscape:window-y="0"
     inkscape:window-maximized="1" />
  <metadata
     id="metadata13299">
    <rdf:RDF>
      <cc:Work
         rdf:about="">
        <dc:format>image/svg+xml</dc:format>
        <dc:type
           rdf:resource="http://purl.org/dc/dcmitype/StillImage" />
        <dc:title></dc:title>
      </cc:Work>
    </rdf:RDF>
  </metadata>
  <g
     id="layer1"
     inkscape:label="Layer 1"
     inkscape:groupmode="layer">
    <g
       id="g3837"
       transform="rotate(-90,8.109375,8.109375)">
      <path
         inkscape:connector-curvature="0"
         id="path29297"
         d="m 5.427734,2.1894531 7.859375,5.7324219 c 0.0012,0.00522 0.0025,0.010425 0.0039,0.015625 L 5.416016,13.685547 4.386719,12.630859 6.736328,10.28125 C 7.3279402,9.689543 8.9089985,8.677922 8.0722656,8.6777344 H 1.15625 V 7.1875 H 8.0449219 C 8.8816525,7.1873089 7.3005949,6.1756898 6.708984,5.5839844 L 4.371094,3.2460938 Z"
         style="color:#000000;display:inline;overflow:visible;visibility:visible;fill:#bebebe;fill-opacity:1;fill-rule:nonzero;stroke:none;stroke-width:1;marker:none;enable-background:accumulate" />
      <rect
         transform="scale(-1,1)"
         style="fill:#bebebe;fill-opacity:1;stroke-width:1.14564395"
         y="2.1875"
         x="-15.28125"
         height="11.625"
         width="1.3125"
         id="rect93" />
    </g>
  </g>
</svg>
